static/images/svg/liked.svg

<svg width="111" height="24" viewBox="0 0 111 24" fill="none" xmlns="http://www.w3.org/2000/svg">
<path d="M36.804 6.892H31.204V8.25H35.082C35.04 8.782 34.942 9.3 34.816 9.79L30.588 10.098C30.672 10.574 30.742 11.036 30.812 11.512L34.27 11.134C33.416 12.772 31.988 14.06 30.252 14.858L31.26 16.02C34.984 14.088 36.804 11.092 36.804 6.892ZM40.164 5.632H38.54V18.106H40.164V11.778H41.914V10.42H40.164V5.632ZM51.0873 11.176V9.93H44.2693V9.202H50.5693V7.956H44.2693V7.242H50.9893V5.954H42.6173V11.176H45.9213V12.086H41.1333V13.402H52.4033V12.086H47.5593V11.176H51.0873ZM42.4633 14.2V15.502H49.3233V18.12H50.9473V14.2H42.4633ZM55.3283 14.242V15.558H62.3703V18.12H63.9943V14.242H60.5503V13.402H65.3943V12.1H54.1243V13.402H58.9123V14.242H55.3283ZM64.9043 10.322C63.0703 10.322 61.2923 9.65 60.7743 8.796H64.2883V7.522H55.2303V8.796H58.7863C58.2823 9.65 56.5743 10.308 54.5583 10.294L55.2303 11.624C57.2323 11.554 59.0523 10.77 59.7523 9.748C60.4803 10.728 62.4403 11.554 64.2743 11.666L64.9043 10.322ZM57.6803 7.004H61.8243V5.716H57.6803V7.004ZM67.0076 9.412C67.0076 8.53 67.6796 7.816 68.7996 7.816C69.9336 7.816 70.6056 8.53 70.6056 9.412C70.6056 10.336 69.9336 11.05 68.7996 11.05C67.6796 11.05 67.0076 10.336 67.0076 9.412ZM75.3656 5.632H73.7416V18.106H75.3656V5.632ZM65.3276 9.426C65.3276 11.162 66.6996 12.422 68.7996 12.422C70.9136 12.422 72.2576 11.162 72.2576 9.426C72.2576 7.676 70.9136 6.43 68.7996 6.43C66.6996 6.43 65.3276 7.676 65.3276 9.426ZM73.2236 14.914L73.0836 13.598C71.9776 13.738 70.4656 13.85 68.9116 13.906C67.4976 13.962 66.2936 13.976 64.8516 13.976L65.0896 15.376C66.1396 15.39 67.6236 15.334 69.0096 15.278C70.3396 15.208 72.0336 15.068 73.2236 14.914ZM85.3789 17.952V13.346H76.9929V17.952H85.3789ZM85.3789 6.122H76.9929V7.424H83.7409C83.7549 8.25 83.6009 9.776 83.4049 10.588H75.5509V11.89H86.8209V10.588H84.9589C85.2249 9.398 85.3789 7.788 85.3789 6.122ZM83.7549 16.678H78.6169V14.592H83.7549V16.678ZM98.5239 15.768C98.5239 14.34 96.9419 13.444 94.1699 13.444C91.4259 13.444 89.8299 14.34 89.8299 15.768C89.8299 17.196 91.4259 18.078 94.1839 18.078C96.9419 18.078 98.5239 17.196 98.5239 15.768ZM94.1839 8.068C94.8139 9.496 96.9979 10.504 98.6639 10.742L99.3639 9.454C97.5719 9.37 95.0379 8.11 95.0379 6.234V5.87H93.3439V6.234C93.3439 8.11 91.1179 9.244 89.0319 9.454L89.7179 10.728C91.5239 10.49 93.5539 9.496 94.1839 8.068ZM99.8119 12.87V11.568H94.9959V9.958H93.3579V11.568H88.5419V12.87H99.8119ZM96.8439 15.768C96.8439 16.412 95.7939 16.79 94.1699 16.79C92.5599 16.79 91.5239 16.412 91.5239 15.768C91.5239 15.138 92.5599 14.746 94.1699 14.746C95.7939 14.746 96.8439 15.138 96.8439 15.768ZM109.083 17.952V13.346H100.697V17.952H109.083ZM109.083 6.122H100.697V7.424H107.445C107.459 8.25 107.305 9.776 107.109 10.588H99.2552V11.89H110.525V10.588H108.663C108.929 9.398 109.083 7.788 109.083 6.122ZM107.459 16.678H102.321V14.592H107.459V16.678Z" fill="#262626"/>
<path d="M17.3 1.55C15.05 1.55 13.35 2.45 12 4.35C10.65 2.5 8.95 1.6 6.7 1.6C3 1.55 0 4.8 0 8.8C0 12.45 2.7 14.8 5.3 17.05C5.6 17.3 5.95 17.6 6.25 17.9L7.4 18.9C9.6 20.85 10.7 21.85 11.2 22.15C11.45 22.3 11.75 22.4 12 22.4C12.25 22.4 12.55 22.3 12.8 22.15C13.3 21.85 14.2 21.05 16.7 18.75L17.7 17.85C18.05 17.55 18.35 17.25 18.7 17C21.35 14.8 24 12.5 24 8.8C24 4.8 21 1.55 17.3 1.55V1.55Z" fill="#ED4956"/>
</svg>

<svg id="구성_요소_1_1" data-name="구성 요소 1 – 1" xmlns="http://www.w3.org/2000/svg" width="84.933" height="20.85" viewBox="0 0 84.933 20.85">
  <g id="liked" transform="translate(0 -1.55)">
    <path id="패스_1" data-name="패스 1" d="M36.8,6.892H31.2V8.25h3.878a9.069,9.069,0,0,1-.266,1.54l-4.228.308c.084.476.154.938.224,1.414l3.458-.378a8.457,8.457,0,0,1-4.018,3.724L31.26,16.02A9.537,9.537,0,0,0,36.8,6.892Zm3.36-1.26H38.54V18.106h1.624V11.778h1.75V10.42h-1.75Zm10.923,5.544V9.93H44.269V9.2h6.3V7.956h-6.3V7.242h6.72V5.954H42.617v5.222h3.3v.91H41.133V13.4H52.4V12.086H47.559v-.91ZM42.463,14.2v1.3h6.86V18.12h1.624V14.2Zm12.865.042v1.316H62.37V18.12h1.624V14.242H60.55V13.4h4.844V12.1H54.124v1.3h4.788v.84Zm9.576-3.92c-1.834,0-3.612-.672-4.13-1.526h3.514V7.522H55.23V8.8h3.556c-.5.854-2.212,1.512-4.228,1.5l.672,1.33c2-.07,3.822-.854,4.522-1.876a6.7,6.7,0,0,0,4.522,1.918ZM57.68,7h4.144V5.716H57.68Zm9.327,2.408A1.807,1.807,0,1,1,68.8,11.05,1.625,1.625,0,0,1,67.008,9.412Zm8.358-3.78H73.742V18.106h1.624ZM65.328,9.426c0,1.736,1.372,3,3.472,3s3.458-1.26,3.458-3-1.344-3-3.458-3S65.328,7.676,65.328,9.426Zm7.9,5.488-.14-1.316c-1.106.14-2.618.252-4.172.308-1.414.056-2.618.07-4.06.07l.238,1.4c1.05.014,2.534-.042,3.92-.1C70.34,15.208,72.034,15.068,73.224,14.914Zm12.155,3.038V13.346H76.993v4.606Zm0-11.83H76.993v1.3h6.748a16.086,16.086,0,0,1-.336,3.164H75.551v1.3h11.27v-1.3H84.959A21.615,21.615,0,0,0,85.379,6.122ZM83.755,16.678H78.617V14.592h5.138Z" transform="translate(-1.887)" fill="#262626"/>
    <path id="패스_2" data-name="패스 2" d="M17.3,1.55A6.1,6.1,0,0,0,12,4.35,6.164,6.164,0,0,0,6.7,1.6C3,1.55,0,4.8,0,8.8c0,3.65,2.7,6,5.3,8.25.3.25.65.55.95.85l1.15,1a48.937,48.937,0,0,0,3.8,3.25,1.66,1.66,0,0,0,.8.25,1.66,1.66,0,0,0,.8-.25,38.5,38.5,0,0,0,3.9-3.4l1-.9c.35-.3.65-.6,1-.85,2.65-2.2,5.3-4.5,5.3-8.2a6.994,6.994,0,0,0-6.7-7.25Z" fill="#ed4956"/>
  </g>
</svg>
